src/lib/packages/icons/src/assets/line/folder-times.svg

<svg width="24" height="24" viewBox="0 0 24 24" fill="none" xmlns="http://www.w3.org/2000/svg">
<path d="M18 6.25H13.311L10.531 3.47C10.39 3.329 10.2 3.25 10.001 3.25H6.00098C3.58298 3.25 2.25098 4.582 2.25098 7V17C2.25098 19.418 3.58298 20.75 6.00098 20.75H18.001C20.419 20.75 21.751 19.418 21.751 17V10C21.75 7.582 20.418 6.25 18 6.25ZM20.25 17C20.25 18.577 19.577 19.25 18 19.25H6C4.423 19.25 3.75 18.577 3.75 17V7C3.75 5.423 4.423 4.75 6 4.75H9.68896L12.469 7.53C12.61 7.671 12.8 7.75 12.999 7.75H17.999C19.576 7.75 20.249 8.423 20.249 10V17H20.25ZM14.53 12.03L13.0601 13.5L14.53 14.97C14.823 15.263 14.823 15.738 14.53 16.031C14.384 16.177 14.192 16.251 14 16.251C13.808 16.251 13.616 16.178 13.47 16.031L12 14.561L10.53 16.031C10.384 16.177 10.192 16.251 10 16.251C9.808 16.251 9.61597 16.178 9.46997 16.031C9.17697 15.738 9.17697 15.263 9.46997 14.97L10.9399 13.5L9.46997 12.03C9.17697 11.737 9.17697 11.262 9.46997 10.969C9.76297 10.676 10.238 10.676 10.531 10.969L12.001 12.439L13.4709 10.969C13.7639 10.676 14.239 10.676 14.532 10.969C14.823 11.262 14.823 11.738 14.53 12.03Z" fill="currentColor"/>
</svg>

<svg xmlns="http://www.w3.org/2000/svg" width="24" height="24" fill="none"><path fill="currentColor" d="M18 6.25h-4.689l-2.78-2.78a.749.749 0 0 0-.53-.22h-4c-2.418 0-3.75 1.332-3.75 3.75v10c0 2.418 1.332 3.75 3.75 3.75h12c2.418 0 3.75-1.332 3.75-3.75v-7C21.75 7.582 20.418 6.25 18 6.25ZM20.25 17c0 1.577-.673 2.25-2.25 2.25H6c-1.577 0-2.25-.673-2.25-2.25V7c0-1.577.673-2.25 2.25-2.25h3.689l2.78 2.78c.141.141.331.22.53.22h5c1.577 0 2.25.673 2.25 2.25v7h.001Zm-5.72-4.97-1.47 1.47 1.47 1.47a.75.75 0 0 1-1.06 1.061L12 14.561l-1.47 1.47a.748.748 0 0 1-1.06 0 .75.75 0 0 1 0-1.061l1.47-1.47-1.47-1.47a.75.75 0 1 1 1.061-1.061l1.47 1.47 1.47-1.47a.75.75 0 1 1 1.059 1.061Z"/></svg>
